packages/core/src/svgs/networks/mono/ronin.svg

<svg width="24" height="24" viewBox="0 0 24 24" fill="none" xmlns="http://www.w3.org/2000/svg">
<path d="M10.8326 9.80108H12.3323C12.5974 9.80108 12.8516 9.6947 13.0391 9.5057C13.2266 9.31652 13.3319 9.06002 13.3319 8.79255V6.60753C13.3319 6.56297 13.3144 6.5202 13.2831 6.48869C13.2519 6.45717 13.2095 6.43945 13.1653 6.43945H10.8326C10.7885 6.43945 10.7461 6.45717 10.7149 6.48869C10.6836 6.5202 10.666 6.56297 10.666 6.60753V9.63295C10.666 9.67758 10.6836 9.72033 10.7149 9.75183C10.7461 9.78333 10.7885 9.80108 10.8326 9.80108Z" fill="white"/>
<path fill-rule="evenodd" clip-rule="evenodd" d="M4.85742 15.8774V3.53853C4.85742 3.13048 5.02013 2.73915 5.30977 2.45062C5.5994 2.16209 5.99222 2 6.40182 2H17.5987C18.0083 2 18.4012 2.16209 18.6908 2.45062C18.9804 2.73915 19.1432 3.13048 19.1432 3.53853V15.8774C19.143 16.1079 19.0909 16.3354 18.9905 16.5431C18.8904 16.7507 18.7445 16.9335 18.5639 17.0775L12.7243 21.7469C12.5188 21.9108 12.2634 22 12.0003 22C11.737 22 11.4818 21.9108 11.2763 21.7469L5.43657 17.0775C5.25597 16.9335 5.11017 16.7507 5.00992 16.5431C4.90968 16.3354 4.85757 16.1079 4.85742 15.8774ZM16.1645 6.43987V9.12914C16.1645 9.48531 16.0244 9.82687 15.775 10.0791C15.5255 10.3311 15.1872 10.4731 14.8342 10.4738C15.1877 10.4738 15.5267 10.6155 15.7767 10.8676C16.0267 11.1198 16.167 11.4618 16.167 11.8184V14.2429C16.1669 14.4444 16.1219 14.6431 16.0354 14.8247C15.9489 15.0062 15.823 15.1659 15.6672 15.2917L13.6045 16.9625C13.58 16.9823 13.5504 16.9946 13.5193 16.9983C13.488 17.0019 13.4565 16.9965 13.4283 16.9828C13.3999 16.9691 13.376 16.9476 13.3594 16.9209C13.3427 16.894 13.3338 16.863 13.3337 16.8314V12.1545C13.3337 11.8871 13.2284 11.6306 13.0409 11.4415C12.8534 11.2524 12.5992 11.1461 12.334 11.1461H10.8345C10.7903 11.1461 10.7479 11.1639 10.7167 11.1953C10.6854 11.2268 10.6679 11.2696 10.6679 11.3141V16.8314C10.6679 16.8631 10.6592 16.8944 10.6424 16.9213C10.6257 16.9483 10.6017 16.9698 10.5732 16.9835C10.5448 16.9973 10.513 17.0026 10.4817 16.9989C10.4504 16.9951 10.4208 16.9825 10.3963 16.9625L8.33357 15.2917C8.17771 15.1659 8.05186 15.0062 7.96535 14.8247C7.87883 14.6431 7.83385 14.4444 7.83372 14.2429V6.43987C7.83372 6.08326 7.97416 5.74125 8.22412 5.48909C8.4741 5.23691 8.81315 5.09525 9.16666 5.09525H14.8317C15.1852 5.09525 15.5242 5.23691 15.7742 5.48909C16.0242 5.74125 16.1645 6.08326 16.1645 6.43987Z" fill="white"/>
</svg>

<svg xmlns="http://www.w3.org/2000/svg" width="24" height="24" fill="none" viewBox="0 0 24 24">
    <path fill="#fff" d="M10.833 9.801h1.5a1 1 0 0 0 .706-.295c.188-.19.293-.446.293-.713V6.608a.17.17 0 0 0-.167-.169h-2.332a.17.17 0 0 0-.167.168v3.026a.17.17 0 0 0 .167.168"/>
    <path fill="#fff" fill-rule="evenodd" d="M4.857 15.877V3.54c0-.409.163-.8.453-1.088S5.992 2 6.402 2h11.197a1.537 1.537 0 0 1 1.544 1.539v12.338a1.53 1.53 0 0 1-.58 1.2l-5.839 4.67a1.16 1.16 0 0 1-1.448 0l-5.84-4.67a1.54 1.54 0 0 1-.579-1.2M16.165 6.44v2.69c0 .355-.14.697-.39.95-.25.251-.588.393-.94.394.353 0 .692.142.942.394s.39.594.39.95v2.425a1.35 1.35 0 0 1-.5 1.049l-2.062 1.67a.17.17 0 0 1-.177.02.17.17 0 0 1-.094-.15v-4.677c0-.268-.106-.524-.293-.713a1 1 0 0 0-.707-.296h-1.5a.166.166 0 0 0-.166.168v5.517a.17.17 0 0 1-.095.152.17.17 0 0 1-.177-.02l-2.062-1.671a1.34 1.34 0 0 1-.5-1.05V6.44c0-.357.14-.699.39-.95.25-.253.59-.395.943-.395h5.665c.353 0 .692.142.942.394s.39.594.39.95" clip-rule="evenodd"/>
</svg>
